X: 39711
T: Terry Teahan's
R: polka
M: 2/4
K: Cmajor
dc {d}cA|GA/B/ cd|eg {a}gf|df/d/ cA|
Gc {d}cA|GA/B/ cd|eg {a}gf|df/d/ cc:|
eg gg|^f/g/a ge|cd/=f/ gd|ed cA|
Gg gg|^f/g/a ge|cd/=f/ gd|ed cc|
eg gg|^f/g/a ge|cd/=f/ gd|ed cA|
Gc {d}cA|GA/B/ cd|eg {a}gf|df/d/ cc||

